X: 1
T: Friendsville
M: 4/4
L: 1/8
R: reel
K: Gmaj
d2 B2 d2 B2 |d2 g2 g2fe| d2 B2 d2 B2 | dcBA =F4 |
d2 B2 d2 B2 |d2 g2 g2 GA | B2AB cBAF | G2 GA G4 :|
B2Bc d2 B2| AGAB c2 GA| B2Bc d2 B2| ABAF D4 |
B2AB cBAG| AGAB c2 GA|B2AB cBAF | G2 GA G4 :|
